X:13006
T:Manchester hornpipe
T:Rickett's hornpipe
R:Hornpipe
C:Trad.
O:England
M:4/4
L:1/8
Q:1/4=120
K:D
(3ABc|"D"dcdA FAdf|"A7"edcB A2g2|"D"fgaf "G"gfed|"A7"edcB A2fe|
"D"dcdA FAdf|"A7"edcB A2g2|"D"fgaf "A7"bgec|"D"d2f2 d2:|
|:fg|"D"afaf "(Bm)"d2ga|"Em"bgbg "A7"e2fg|"D"afaf "G"bagf|"E7"edcB "A7"A2fe|
"D"dcdA FAdf|"A7"edcB A2g2|"D"fgaf "A7"bgec|"D"d2f2 d2:|

